src/assets/diamonds_3.svg

<?xml version="1.0" encoding="UTF-8"?>
<svg xmlns="http://www.w3.org/2000/svg" xmlns:xlink="http://www.w3.org/1999/xlink" width="99px" height="140px" viewBox="0 0 99 140" version="1.1">
<g id="surface1">
<path style="fill-rule:nonzero;fill:rgb(100%,100%,100%);fill-opacity:1;stroke-width:0.755906;stroke-linecap:butt;stroke-linejoin:miter;stroke:rgb(50.196078%,50.196078%,50.196078%);stroke-opacity:1;stroke-miterlimit:4;" d="M 9.297585 719.743103 L 224.702415 719.743103 C 229.632812 719.743103 233.621449 723.747651 233.621449 728.681329 L 233.621449 1043.042991 C 233.621449 1047.976669 229.632812 1051.981217 224.702415 1051.981217 L 9.297585 1051.981217 C 4.367188 1051.981217 0.378551 1047.976669 0.378551 1043.042991 L 0.378551 728.681329 C 0.378551 723.747651 4.367188 719.743103 9.297585 719.743103 Z M 9.297585 719.743103 " transform="matrix(0.423077,0,0,0.42042,0,-302.434542)"/>
<path style=" stroke:none;fill-rule:nonzero;fill:rgb(100%,0%,0%);fill-opacity:1;" d="M 49.5 39.820312 L 61.449219 27.90625 L 49.5 15.992188 L 37.550781 27.90625 Z M 49.5 39.820312 "/>
<path style=" stroke:none;fill-rule:nonzero;fill:rgb(100%,0%,0%);fill-opacity:1;" d="M 49.5 124.007812 L 61.449219 112.09375 L 49.5 100.179688 L 37.550781 112.09375 Z M 49.5 124.007812 "/>
<path style=" stroke:none;fill-rule:nonzero;fill:rgb(100%,0%,0%);fill-opacity:1;" d="M 49.5 81.914062 L 61.449219 70 L 49.5 58.085938 L 37.550781 70 Z M 49.5 81.914062 "/>
<path style=" stroke:none;fill-rule:nonzero;fill:rgb(100%,0%,0%);fill-opacity:1;" d="M 7.277344 25.789062 L 11.261719 21.816406 L 7.277344 17.847656 L 3.296875 21.816406 Z M 7.277344 25.789062 "/>
<path style=" stroke:none;fill-rule:nonzero;fill:rgb(100%,0%,0%);fill-opacity:1;" d="M 91.722656 114.210938 L 95.703125 118.183594 L 91.722656 122.152344 L 87.738281 118.183594 Z M 91.722656 114.210938 "/>
<path style=" stroke:none;fill-rule:nonzero;fill:rgb(100%,0%,0%);fill-opacity:1;" d="M 11.261719 11.835938 C 11.261719 12.941406 10.867188 13.792969 10.070312 14.386719 C 9.355469 14.929688 8.417969 15.199219 7.257812 15.199219 C 4.617188 15.199219 3.296875 13.980469 3.296875 11.542969 C 3.296875 11.429688 3.316406 11.324219 3.355469 11.21875 C 3.4375 11.171875 3.53125 11.148438 3.636719 11.148438 L 4.71875 11.148438 C 4.824219 11.148438 4.921875 11.171875 5.011719 11.21875 C 5.039062 11.296875 5.0625 11.386719 5.078125 11.488281 C 5.171875 12.160156 5.367188 12.644531 5.660156 12.949219 C 5.988281 13.285156 6.488281 13.453125 7.167969 13.453125 C 7.722656 13.453125 8.175781 13.308594 8.523438 13.015625 C 8.890625 12.699219 9.074219 12.277344 9.074219 11.746094 C 9.074219 10.621094 8.441406 9.960938 7.183594 9.765625 C 7.027344 9.746094 6.910156 9.710938 6.832031 9.667969 C 6.789062 9.582031 6.765625 9.144531 6.765625 8.351562 C 6.765625 8.25 6.792969 8.152344 6.84375 8.0625 C 7.257812 7.941406 7.675781 7.820312 8.089844 7.695312 C 8.527344 7.5 8.75 7.089844 8.75 6.46875 C 8.75 5.527344 8.183594 5.054688 7.050781 5.054688 C 6.527344 5.054688 6.121094 5.179688 5.828125 5.429688 C 5.671875 5.566406 5.511719 5.796875 5.34375 6.121094 C 5.222656 6.367188 5.101562 6.492188 4.976562 6.492188 L 3.902344 6.492188 C 3.632812 6.492188 3.496094 6.375 3.496094 6.136719 C 3.496094 5.230469 3.859375 4.515625 4.585938 3.992188 C 5.242188 3.519531 6.046875 3.285156 7 3.285156 C 8.097656 3.285156 8.996094 3.511719 9.6875 3.960938 C 10.503906 4.484375 10.914062 5.257812 10.914062 6.28125 C 10.914062 7.515625 10.289062 8.355469 9.039062 8.800781 C 10.523438 9.410156 11.261719 10.425781 11.261719 11.835938 Z M 11.261719 11.835938 "/>
<path style=" stroke:none;fill-rule:nonzero;fill:rgb(100%,0%,0%);fill-opacity:1;" d="M 87.738281 128.164062 C 87.738281 127.058594 88.132812 126.207031 88.929688 125.613281 C 89.644531 125.070312 90.582031 124.800781 91.742188 124.800781 C 94.382812 124.800781 95.703125 126.019531 95.703125 128.457031 C 95.703125 128.570312 95.683594 128.675781 95.644531 128.78125 C 95.5625 128.828125 95.46875 128.851562 95.363281 128.851562 L 94.28125 128.851562 C 94.175781 128.851562 94.078125 128.828125 93.988281 128.78125 C 93.960938 128.703125 93.9375 128.613281 93.921875 128.511719 C 93.828125 127.839844 93.632812 127.355469 93.339844 127.050781 C 93.011719 126.714844 92.511719 126.546875 91.832031 126.546875 C 91.277344 126.546875 90.824219 126.691406 90.476562 126.984375 C 90.109375 127.300781 89.925781 127.722656 89.925781 128.253906 C 89.925781 129.378906 90.558594 130.039062 91.816406 130.234375 C 91.972656 130.253906 92.089844 130.289062 92.167969 130.332031 C 92.210938 130.417969 92.234375 130.855469 92.234375 131.648438 C 92.234375 131.75 92.207031 131.847656 92.15625 131.9375 C 91.742188 132.058594 91.324219 132.179688 90.910156 132.304688 C 90.472656 132.5 90.25 132.910156 90.25 133.53125 C 90.25 134.472656 90.816406 134.945312 91.949219 134.945312 C 92.472656 134.945312 92.878906 134.820312 93.171875 134.570312 C 93.328125 134.433594 93.488281 134.203125 93.65625 133.878906 C 93.777344 133.632812 93.898438 133.507812 94.023438 133.507812 L 95.097656 133.507812 C 95.367188 133.507812 95.503906 133.625 95.503906 133.863281 C 95.503906 134.769531 95.140625 135.484375 94.414062 136.007812 C 93.757812 136.480469 92.953125 136.714844 92 136.714844 C 90.902344 136.714844 90.003906 136.488281 89.3125 136.039062 C 88.496094 135.515625 88.085938 134.742188 88.085938 133.71875 C 88.085938 132.484375 88.710938 131.644531 89.960938 131.199219 C 88.476562 130.589844 87.738281 129.574219 87.738281 128.164062 Z M 87.738281 128.164062 "/>
</g>
</svg>

<svg xmlns="http://www.w3.org/2000/svg" width="99" height="140"><path d="M9.298 719.743h215.404c4.93 0 8.92 4.005 8.92 8.938v314.362c0 4.934-3.99 8.938-8.92 8.938H9.298c-4.93 0-8.92-4.004-8.92-8.938V728.681c0-4.933 3.99-8.938 8.92-8.938Zm0 0" style="fill-rule:nonzero;fill:#fff;fill-opacity:1;stroke-width:.755906;stroke-linecap:butt;stroke-linejoin:miter;stroke:gray;stroke-opacity:1;stroke-miterlimit:4" transform="matrix(.42308 0 0 .42042 0 -302.435)"/><path d="m49.5 39.82 11.95-11.914L49.5 15.992 37.55 27.906ZM49.5 124.008l11.95-11.914L49.5 100.18l-11.95 11.914ZM49.5 81.914 61.45 70 49.5 58.086 37.55 70ZM7.277 25.79l3.985-3.974-3.985-3.968-3.98 3.968ZM91.723 114.21l3.98 3.974-3.98 3.968-3.985-3.968ZM11.262 11.836c0 1.105-.395 1.957-1.192 2.55-.715.544-1.652.813-2.812.813-2.64 0-3.961-1.219-3.961-3.656 0-.113.02-.219.058-.324a.557.557 0 0 1 .282-.07h1.082c.105 0 .203.023.293.07.027.078.05.168.066.27.094.671.29 1.156.582 1.46.328.336.828.504 1.508.504.555 0 1.008-.144 1.355-.437.368-.317.551-.739.551-1.27 0-1.125-.633-1.785-1.89-1.98a1.008 1.008 0 0 1-.352-.098c-.043-.086-.066-.523-.066-1.316 0-.102.027-.2.078-.29.414-.12.832-.242 1.246-.367.437-.195.66-.605.66-1.226 0-.942-.566-1.414-1.7-1.414-.523 0-.929.125-1.222.375-.156.136-.316.367-.484.691-.121.246-.242.371-.367.371H3.902c-.27 0-.406-.117-.406-.355 0-.907.363-1.621 1.09-2.145.656-.472 1.46-.707 2.414-.707 1.098 0 1.996.227 2.688.676.816.523 1.226 1.297 1.226 2.32 0 1.235-.625 2.074-1.875 2.52 1.484.61 2.223 1.625 2.223 3.035ZM87.738 128.164c0-1.105.395-1.957 1.192-2.55.715-.544 1.652-.813 2.812-.813 2.64 0 3.961 1.219 3.961 3.656 0 .113-.02.219-.058.324a.557.557 0 0 1-.282.07h-1.082a.624.624 0 0 1-.293-.07 1.511 1.511 0 0 1-.066-.27c-.094-.671-.29-1.156-.582-1.46-.328-.336-.828-.504-1.508-.504-.555 0-1.008.144-1.355.437-.368.317-.551.739-.551 1.27 0 1.125.633 1.785 1.89 1.98.157.02.274.055.352.098.043.086.066.523.066 1.316 0 .102-.027.2-.078.29-.414.12-.832.242-1.246.367-.437.195-.66.605-.66 1.226 0 .942.566 1.414 1.7 1.414.523 0 .929-.125 1.222-.375.156-.136.316-.367.484-.691.121-.246.242-.371.367-.371h1.075c.27 0 .406.117.406.355 0 .907-.363 1.621-1.09 2.145-.656.472-1.46.707-2.414.707-1.098 0-1.996-.227-2.688-.676-.816-.523-1.226-1.297-1.226-2.32 0-1.235.625-2.074 1.875-2.52-1.484-.61-2.223-1.625-2.223-3.035Zm0 0" style="stroke:none;fill-rule:nonzero;fill:red;fill-opacity:1"/></svg>
